X:1
T: The Braes of Dunblane
C:
R:Reel
Q: 232
K:G
M:4/4
L:1/8
|:ge|d2Bd ef ge|dB GB AGE2|d2Bd ef gb|af df g2ge|
d2Bd ef ge|dB GB AGE2|d2Bd ef gb|af df g2d2|
g2gf gb ag|fd ad bd ad|g2gf gb ag|fd ef g2d2|
g2gf gb ag|fd ad bd ad|ed eg fd fb|af df g2:|
